layouts/icon-pack/spell_blast.svg

<?xml version="1.0" encoding="UTF-8"?>
<svg width="1200pt" height="1200pt" version="1.1" viewBox="0 0 1200 1200" xmlns="http://www.w3.org/2000/svg">
 <g fill="#fff">
  <path d="m222.63 136.17c0 19.52-15.047 35.344-33.609 35.344s-33.609-15.824-33.609-35.344 15.047-35.344 33.609-35.344 33.609 15.824 33.609 35.344"/>
  <path d="m1043.8 399.1c15.906 10.137 16.852 37.094 2.1172 60.215-14.734 23.117-39.57 33.645-55.477 23.508-15.902-10.137-16.852-37.094-2.1172-60.215s39.574-33.645 55.477-23.508"/>
  <path d="m987.4 113.67c2.8359-14.625-1.5938-27.75-11.203-33.258l-4.2422-2.3438-4.2188-2.3438c-9.6094-5.5312-22.523-2.3438-32.672 8.0859-6.1133 6.3672-10.461 14.219-12.609 22.781l-15.164 60.188c-4.5234 17.93 16.875 30.211 28.781 16.406l39.844-45.984c5.7578-6.6992 9.6797-14.773 11.391-23.438z"/>
  <path d="m1062.4 824.34 64.945-115.45c2.6367-4.5352 3.8125-9.7695 3.3672-14.992-0.44531-5.2266-2.4883-10.188-5.8516-14.211-4.5312-5.3008-11.301-8.1484-18.258-7.6875-6.9609 0.46094-13.293 4.1797-17.086 10.031-11.344 17.477-28.043 30.809-47.602 37.992-7.8047 2.8828-19.664 1.0312-21.094-7.5234-16.734-108.14-83.297-207.59-184.78-242.79-7.2188-2.5078-7.0312-14.062-5.6016-21.961 3.5156-19.5 15.281-65.156 54.188-162.82 1.6523-4.1172 1.918-8.6562 0.76562-12.941-1.1562-4.2812-3.668-8.0703-7.1641-10.801l-0.44531-0.35156c-4.1367-3.1016-9.3711-4.3594-14.465-3.4688-5.0938 0.88672-9.5977 3.8398-12.441 8.1562l-88.266 129.14-43.898 60.422c-8.0391 11.062-24.82 3.6094-22.875-10.172l7.6172-53.906c1.0547-6.6523-0.32812-13.465-3.8984-19.176-3.5703-5.7109-9.0898-9.9375-15.531-11.902-54.07-14.711-110.91-16.039-165.61-3.8672-25.945 5.5273-51.012 14.57-74.508 26.883l-0.375 0.1875c-31.301 16.906-51.578 48.855-53.555 84.375-0.59766 10.375-0.59766 20.773 0 31.148 0.43359 3.6797-1.8477 7.1328-5.4023 8.1758-3.5547 1.0469-7.3438-0.62891-8.9648-3.957l-36.328-71.391-91.805-192.19c-5.3672-11.25-38.672-4.9219-29.508 28.43l52.969 181.48c1.6484 5.5352 1.7344 11.418 0.24219 17-1.4883 5.5781-4.4922 10.641-8.6797 14.617-13.359 12.422-32.812 31.43-42.961 45.352-21.168 29.188-35.957 62.504-43.406 97.781 0 0.28125 0 0.5625-0.16406 0.82031-9.1172 43.82 1.4648 89.43 28.945 124.76l6.3281 8.0859c3.3945 4.2539 5.2969 9.5039 5.418 14.945 0.125 5.4375-1.5391 10.77-4.7383 15.172-3.6875 4.9766-9.3477 8.1211-15.523 8.6172-6.1758 0.5-12.266-1.6953-16.703-6.0156l-31.5-30.188-34.617-37.688c-3.793-4.4023-9.0391-7.2969-14.785-8.1562-5.7461-0.85938-11.613 0.37109-16.527 3.4688-12.047 8.0391-18.188 27.188-7.7812 36.164 57.703 49.969 37.031 133.05 36.305 141.23-2.7305 32.316-1.3711 64.848 4.0547 96.82 1.2656 7.6641 2.7891 17.602 5.1328 27.797 0.54688 10.59-1.3359 21.164-5.5078 30.914-6.6562 15.234-24.422 23.438-31.031 38.625-3.668 8.3594-2.8555 18.008 2.1602 25.637 5.0195 7.6289 13.555 12.199 22.684 12.145h980.86c6.5859-0.19141 12.832-2.9883 17.355-7.7773 4.5273-4.7891 6.9688-11.18 6.7852-17.77 0-5.0859 0-8.5547-5.5078-17.391-17.648-28.383-16.125-65.625-20.953-96.094-1.1875-7.3594-3.0469-14.59-5.5547-21.609-8.3906-23.789-36.375-32.016-55.383-16.406-9.582 7.9414-18.688 16.449-27.258 25.477-3.1523 3.5352-8.3203 4.4453-12.492 2.2031-5.5234-3.4297-7.2969-10.645-3.9844-16.242zm-372.66-315.21c8.3438-19.336 35.367-25.359 60.375-13.43 25.008 11.93 38.555 37.242 30.211 56.578s-35.367 25.359-60.375 13.453-38.555-37.242-30.234-56.602zm-389.55 126.02c9.2578-28.875 36.867-45.141 61.664-36.352 24.797 8.7891 37.5 39.305 28.125 68.18s-36.867 45.117-61.641 36.328c-24.773-8.7891-37.383-39.305-28.148-68.156zm636.61 343.52c-25.43 102.12-113.2 102.12-113.2 102.12h-453.28c-39 0-74.438-24.633-89.062-62.672-21.094-55.406-6.5859-119.77 7.9219-161.39 8.4375-24.258 34.617-35.953 57.047-25.43 20.648 9.7031 30.469 34.758 22.148 56.859-10.008 26.672-11.719 48.984-9.375 67.172 0.82422 7.6133 5.1641 14.402 11.73 18.348 6.5664 3.9414 14.602 4.582 21.711 1.7305 7.1055-2.8555 12.469-8.8711 14.488-16.258 29.461-94.336 98.18-116.25 141.8-120.19 18.023-1.6406 24.281-25.945 9.7734-37.312-15.938-12.492-36.703-21.375-58.875-20.438h-1.2656c-29.133 1.0078-53.156-24.469-51.562-55.078 1.4883-25.773 9.9648-50.652 24.516-71.977 22.348-33.363 56.195-57.332 95.086-67.336 86.391-22.758 135.75 15.422 160.05 45.773 11.098 14.16 18.75 30.703 22.359 48.328 0.39844 1.875 0.82031 3.7266 1.2656 5.5312 5.3086 22.18 17.492 42.113 34.809 56.949 17.316 14.84 38.883 23.824 61.613 25.668 25.406 1.9688 40.289 12.867 48.867 23.438 10.543 13.223 13.461 30.973 7.7109 46.875-5.9297 15.938-18.492 22.688-29.883 25.43-11.02 2.6211-22.633 0.77734-32.297-5.1328-19.945-12.023-41.789-16.57-61.242-17.578-15.516-0.79688-21.398 20.906-7.7109 28.617 29.578 16.664 60.938 41.953 58.195 73.359-1.2266 12.125-1.1016 24.348 0.375 36.445 2.7656 19.711 24.469 29.25 39.844 17.719 11.777-8.7383 21.445-20.008 28.289-32.977 2.4297-4.9727 6.75-8.7656 11.996-10.527 5.2461-1.7617 10.98-1.3477 15.918 1.1523 4.0352 2.0781 7.2422 5.4609 9.1055 9.6016 1.8594 4.1367 2.2617 8.7852 1.1367 13.18z"/>
  <path d="m629.69 678.88c5.3945 20.719-9.9258 42.641-34.215 48.965-24.289 6.3203-48.352-5.3477-53.746-26.066-5.3906-20.723 9.9258-42.645 34.215-48.965 24.289-6.3242 48.352 5.3477 53.746 26.066"/>
  <path d="m744.91 957.12c6.1094 27.219-6.1602 53.148-27.402 57.914-21.242 4.7695-43.418-13.43-49.527-40.648-6.1094-27.219 6.1602-53.145 27.406-57.914 21.242-4.7695 43.414 13.43 49.523 40.648"/>
 </g>
</svg>

<?xml version="1.0" encoding="UTF-8" standalone="no"?>
<!DOCTYPE svg PUBLIC "-//W3C//DTD SVG 1.1//EN" "http://www.w3.org/Graphics/SVG/1.1/DTD/svg11.dtd">
<svg width="100%" height="100%" viewBox="0 0 512 509" version="1.1" xmlns="http://www.w3.org/2000/svg" xmlns:xlink="http://www.w3.org/1999/xlink" xml:space="preserve" xmlns:serif="http://www.serif.com/" style="fill-rule:evenodd;clip-rule:evenodd;stroke-linejoin:round;stroke-miterlimit:2;">
    <g transform="matrix(1,0,0,1,-69.1839,-73.0435)">
        <g transform="matrix(0.482282,0,0,0.482282,35.8178,37.8159)">
            <path d="M222.63,136.17C222.63,155.69 207.583,171.514 189.021,171.514C170.459,171.514 155.412,155.69 155.412,136.17C155.412,116.65 170.459,100.826 189.021,100.826C207.583,100.826 222.63,116.65 222.63,136.17" style="fill:white;fill-rule:nonzero;"/>
            <path d="M1043.8,399.1C1059.71,409.237 1060.65,436.194 1045.92,459.315C1031.18,482.432 1006.35,492.96 990.44,482.823C974.538,472.686 973.588,445.729 988.323,422.608C1003.06,399.487 1027.9,388.963 1043.8,399.1" style="fill:white;fill-rule:nonzero;"/>
            <path d="M987.4,113.67C990.236,99.045 985.806,85.92 976.197,80.412L971.955,78.068L967.736,75.724C958.127,70.193 945.213,73.381 935.064,83.81C928.951,90.178 924.603,98.029 922.455,106.591L907.291,166.779C902.768,184.709 924.166,196.99 936.072,183.185L975.916,137.201C981.674,130.502 985.596,122.428 987.307,113.763L987.4,113.67Z" style="fill:white;fill-rule:nonzero;"/>
            <path d="M1062.4,824.34L1127.35,708.89C1129.98,704.355 1131.16,699.121 1130.71,693.898C1130.27,688.671 1128.22,683.71 1124.86,679.687C1120.33,674.386 1113.56,671.539 1106.6,672C1099.64,672.46 1093.31,676.179 1089.52,682.031C1078.17,699.507 1061.47,712.839 1041.91,720.022C1034.11,722.905 1022.25,721.054 1020.82,712.499C1004.09,604.359 937.524,504.909 836.041,469.709C828.822,467.201 829.009,455.647 830.439,447.748C833.955,428.248 845.72,382.592 884.627,284.928C886.279,280.811 886.545,276.272 885.393,271.987C884.236,267.706 881.725,263.917 878.229,261.186L877.783,260.835C873.647,257.733 868.412,256.475 863.318,257.366C858.224,258.252 853.721,261.206 850.877,265.522L762.611,394.662L718.713,455.084C710.674,466.146 693.893,458.693 695.838,444.912L703.455,391.006C704.51,384.354 703.127,377.541 699.557,371.83C695.987,366.119 690.467,361.892 684.026,359.928C629.956,345.217 573.116,343.889 518.416,356.061C492.471,361.588 467.404,370.631 443.908,382.944L443.533,383.131C412.232,400.037 391.955,431.986 389.978,467.506C389.38,477.881 389.38,488.279 389.978,498.654C390.412,502.334 388.13,505.787 384.576,506.83C381.021,507.877 377.232,506.201 375.611,502.873L339.283,431.482L247.478,239.292C242.111,228.042 208.806,234.37 217.97,267.722L270.939,449.202C272.587,454.737 272.673,460.62 271.181,466.202C269.693,471.78 266.689,476.843 262.501,480.819C249.142,493.241 229.689,512.249 219.54,526.171C198.372,555.359 183.583,588.675 176.134,623.952C176.134,624.233 176.134,624.515 175.97,624.772C166.853,668.592 177.435,714.202 204.915,749.532L211.243,757.618C214.638,761.872 216.54,767.122 216.661,772.563C216.786,778.001 215.122,783.333 211.923,787.735C208.236,792.712 202.575,795.856 196.4,796.352C190.224,796.852 184.134,794.657 179.697,790.337L148.197,760.149L113.58,722.461C109.787,718.059 104.541,715.164 98.795,714.305C93.049,713.445 87.182,714.676 82.268,717.773C70.221,725.813 64.08,744.961 74.487,753.937C132.19,803.906 111.518,886.987 110.792,895.167C108.061,927.483 109.421,960.015 114.847,991.987C116.112,999.652 117.636,1009.59 119.979,1019.78C120.526,1030.37 118.644,1040.95 114.472,1050.7C107.815,1065.93 90.05,1074.14 83.441,1089.32C79.773,1097.68 80.585,1107.33 85.601,1114.96C90.62,1122.59 99.156,1127.16 108.285,1127.11L1089.14,1127.11C1095.73,1126.91 1101.98,1124.12 1106.5,1119.33C1111.03,1114.54 1113.47,1108.15 1113.29,1101.56C1113.29,1096.47 1113.29,1093 1107.78,1084.17C1090.13,1055.78 1091.65,1018.54 1086.82,988.073C1085.64,980.714 1083.78,973.483 1081.27,966.464C1072.88,942.675 1044.89,934.448 1025.89,950.058C1016.31,958 1007.2,966.507 998.629,975.535C995.476,979.07 990.308,979.98 986.137,977.738C980.613,974.309 978.84,967.093 982.152,961.496L1062.4,824.34ZM689.74,509.13C698.084,489.794 725.107,483.771 750.115,495.7C775.123,507.63 788.67,532.942 780.326,552.278C771.982,571.614 744.959,577.637 719.951,565.731C694.943,553.825 681.396,528.489 689.717,509.129L689.74,509.13ZM300.19,635.15C309.448,606.275 337.057,590.009 361.854,598.798C386.651,607.587 399.354,638.103 389.979,666.978C380.604,695.853 353.112,712.095 328.338,703.306C303.565,694.517 290.955,664.001 300.19,635.15ZM936.8,978.67C911.37,1080.79 823.6,1080.79 823.6,1080.79L370.32,1080.79C331.32,1080.79 295.882,1056.16 281.258,1018.12C260.164,962.712 274.672,898.348 289.18,856.728C297.617,832.47 323.797,820.775 346.227,831.298C366.875,841.001 376.696,866.056 368.375,888.157C358.367,914.829 356.656,937.141 359,955.329C359.824,962.942 364.164,969.731 370.73,973.677C377.296,977.618 385.332,978.259 392.441,975.408C399.546,972.552 404.91,966.536 406.929,959.15C436.39,864.814 505.109,842.9 548.729,838.959C566.752,837.319 573.01,813.014 558.502,801.647C542.564,789.156 521.799,780.272 499.627,781.209L498.362,781.209C469.229,782.217 445.206,756.74 446.8,726.132C448.288,700.358 456.765,675.479 471.316,654.155C493.664,620.792 527.511,596.823 566.402,586.819C652.793,564.06 702.152,602.241 726.452,632.592C737.55,646.752 745.202,663.295 748.811,680.92C749.209,682.795 749.631,684.646 750.076,686.451C755.385,708.631 767.568,728.564 784.885,743.4C802.201,758.24 823.768,767.224 846.498,769.068C871.904,771.036 886.787,781.935 895.365,792.506C905.908,805.729 908.826,823.479 903.076,839.381C897.146,855.319 884.584,862.069 873.193,864.811C862.173,867.432 850.56,865.588 840.896,859.678C820.951,847.655 799.107,843.108 779.654,842.1C764.138,841.303 758.256,863.006 771.943,870.717C801.521,887.381 832.881,912.67 830.138,944.076C828.912,956.201 829.037,968.424 830.513,980.521C833.279,1000.23 854.982,1009.77 870.357,998.24C882.134,989.502 891.802,978.232 898.646,965.263C901.076,960.29 905.396,956.497 910.642,954.736C915.888,952.974 921.622,953.388 926.56,955.888C930.596,957.966 933.803,961.349 935.666,965.49C937.525,969.627 937.928,974.275 936.803,978.67L936.8,978.67Z" style="fill:white;fill-rule:nonzero;"/>
            <path d="M629.69,678.88C635.085,699.599 619.764,721.521 595.475,727.845C571.186,734.165 547.123,722.497 541.729,701.779C536.338,681.056 551.655,659.134 575.944,652.814C600.233,646.49 624.296,658.162 629.69,678.88" style="fill:white;fill-rule:nonzero;"/>
            <path d="M744.91,957.12C751.019,984.339 738.75,1010.27 717.508,1015.03C696.266,1019.8 674.09,1001.6 667.981,974.386C661.872,947.167 674.141,921.241 695.387,916.472C716.629,911.703 738.801,929.902 744.91,957.12" style="fill:white;fill-rule:nonzero;"/>
        </g>
    </g>
</svg>
